;FLAVOR:Marlin
M117 Time Left 3h37m15s
;TIME:13035
;Filament used: 29.2052m
;Layer height: 0.32
;MINX:19.836
;MINY:17.401
;MINZ:0.32
;MAXX:207.526
;MAXY:205.09
;MAXZ:6.6
;POSTPROCESSED
;Generated with Cura_SteamEngine 5.2.2
M140 S75
M105
M190 S75
M104 S245
M105
M109 S245
M82 ;absolute extrusion mode
; Ender 3 Custom Start G-code
G92 E0 ; Reset Extruder
G28 ; Home all axes
G1 Z2.0 F3000 ; Move Z Axis up little to prevent scratching of Heat Bed
G1 X0.1 Y20 Z0.3 F5000.0 ; Move to start position
G1 X0.1 Y200.0 Z0.3 F1500.0 E15 ; Draw the first line
G1 X0.4 Y200.0 Z0.3 F5000.0 ; Move to side a little
G1 X0.4 Y20 Z0.3 F1500.0 E30 ; Draw the second line
G92 E0 ; Reset Extruder
G1 Z2.0 F3000 ; Move Z Axis up little to prevent scratching of Heat Bed
G1 X5 Y20 Z0.3 F5000.0 ; Move over to prevent blob squish
G92 E0
G92 E0
G1 F2700 E-5
;LAYER_COUNT:20
;LAYER:0
M107
G1 F300 Z0.52
G0 F6000 X31.433 Y30.867 Z0.52
;TYPE:SKIRT
G1 F300 Z0.32
G1 F2700 E0
G1 F1200 X32.106 Y30.17 E0.10312
G1 X33.114 Y29.177 E0.25372
G1 X33.994 Y28.364 E0.38123
G1 X34.841 Y27.622 E0.50108
G1 X35.532 Y27.047 E0.59676
G1 X36.357 Y26.388 E0.70914
G1 X37.335 Y25.652 E0.83941
G1 X38.235 Y25.01 E0.95707
G1 X38.602 Y24.758 E1.00446
G1 X39.636 Y24.08 E1.13606
G1 X40.186 Y23.735 E1.20516
G1 X41.035 Y23.229 E1.31035
G1 X42.168 Y22.591 E1.44874
G1 X42.548 Y22.387 E1.49465
G1 X43.597 Y21.851 E1.62002
G1 X44.657 Y21.342 E1.74517
G1 X45.544 Y20.946 E1.84856
G1 X46.421 Y20.575 E1.94991
G1 X46.773 Y20.434 E1.99027
G1 X47.967 Y19.98 E2.12623
G1 X48.668 Y19.731 E2.2054
G1 X49.524 Y19.448 E2.30136
G1 X50.864 Y19.043 E2.45035
G1 X51.304 Y18.92 E2.49898
G1 X52.455 Y18.624 E2.62547
G1 X53.485 Y18.386 E2.73798
G1 X54.714 Y18.138 E2.87142
G1 X55.806 Y17.948 E2.98939
G1 X56.78 Y17.805 E3.09417
G1 X57.772 Y17.68 E3.20058
G1 X59.051 Y17.557 E3.33734
G1 X60.426 Y17.464 E3.48402
G1 X61.026 Y17.439 E3.54793
G1 X63.247 Y17.401 E3.78435
G1 X154.313 Y17.403 E13.47673
G1 X155.998 Y17.429 E13.65609
G1 X157.576 Y17.491 E13.82417
G1 X158.491 Y17.553 E13.92178
G1 X159.661 Y17.649 E14.04672
G1 X161.175 Y17.818 E14.20886
G1 X162.39 Y17.981 E14.33934
G1 X163.332 Y18.132 E14.44088
G1 X164.871 Y18.409 E14.60731
G1 X165.779 Y18.599 E14.70604
G1 X167.251 Y18.936 E14.86676
G1 X168.138 Y19.165 E14.96426
G1 X169.61 Y19.574 E15.12687
G1 X170.431 Y19.827 E15.2183
G1 X171.616 Y20.211 E15.35088
G1 X172.958 Y20.689 E15.5025
G1 X174.235 Y21.177 E15.64801
G1 X175.226 Y21.587 E15.76215
G1 X176.48 Y22.133 E15.90772
G1 X177.294 Y22.513 E16.00333
G1 X178.534 Y23.119 E16.15022
G1 X178.945 Y23.33 E16.1994
G1 X180.434 Y24.132 E16.3794
G1 X180.808 Y24.342 E16.42505
G1 X181.777 Y24.911 E16.54465
G1 X182.866 Y25.577 E16.68051
G1 X183.869 Y26.229 E16.80784
G1 X184.964 Y26.972 E16.94868
G1 X185.837 Y27.6 E17.06313
G1 X186.921 Y28.41 E17.20716
G1 X187.665 Y28.998 E17.30809
G1 X188.793 Y29.923 E17.46335
G1 X189.485 Y30.523 E17.56083
G1 X190.403 Y31.343 E17.69184
G1 X191.34 Y32.228 E17.82902
G1 X192.272 Y33.146 E17.96825
G1 X193.199 Y34.112 E18.11075
G1 X193.971 Y34.949 E18.23194
G1 X194.808 Y35.906 E18.36725
G1 X195.634 Y36.892 E18.50415
G1 X196.351 Y37.797 E18.62704
G1 X197.147 Y38.84 E18.76669
G1 X197.806 Y39.755 E18.8867
G1 X198.554 Y40.837 E19.0267
G1 X199.048 Y41.591 E19.12264
G1 X199.863 Y42.888 E19.28567
G1 X200.334 Y43.687 E19.38439
G1 X200.908 Y44.693 E19.50766
G1 X201.488 Y45.773 E19.63814
G1 X202.045 Y46.865 E19.76861
G1 X202.598 Y48.025 E19.90538
G1 X203.226 Y49.425 E20.06869
G1 X203.571 Y50.254 E20.16426
G1 X204.138 Y51.692 E20.32878
G1 X204.512 Y52.727 E20.4459
G1 X204.815 Y53.603 E20.54456
G1 X205.206 Y54.838 E20.68243
G1 X205.642 Y56.334 E20.84828
G1 X205.921 Y57.407 E20.96628
G1 X206.237 Y58.724 E21.11043
G1 X206.43 Y59.637 E21.20975
G1 X206.71 Y61.085 E21.36672
G1 X206.891 Y62.191 E21.486
G1 X207.079 Y63.492 E21.62591
G1 X207.207 Y64.592 E21.74377
G1 X207.308 Y65.588 E21.85032
G1 X207.41 Y66.966 E21.99739
G1 X207.468 Y68 E22.10761
G1 X207.512 Y69.604 E22.27839
G1 X207.526 Y70.849 E22.41091
G1 X207.524 Y161.874 E32.09892
G1 X207.489 Y163.851 E32.30937
G1 X207.458 Y164.594 E32.38852
G1 X207.398 Y165.527 E32.48803
G1 X207.274 Y166.896 E32.63433
G1 X207.228 Y167.314 E32.67909
G1 X207.105 Y168.269 E32.78157
G1 X206.899 Y169.599 E32.92481
G1 X206.673 Y170.806 E33.05551
G1 X206.431 Y171.931 E33.17798
G1 X206.146 Y173.093 E33.30532
G1 X205.841 Y174.211 E33.42866
G1 X205.5 Y175.333 E33.55347
G1 X205.146 Y176.399 E33.67302
G1 X204.723 Y177.559 E33.80444
G1 X204.441 Y178.283 E33.88713
G1 X204.096 Y179.115 E33.983
G1 X203.555 Y180.333 E34.12484
G1 X203.396 Y180.674 E34.16489
G1 X202.969 Y181.546 E34.26823
G1 X202.328 Y182.774 E34.41566
G1 X201.71 Y183.872 E34.54976
G1 X201.305 Y184.554 E34.63418
G1 X200.63 Y185.625 E34.76892
G1 X199.811 Y186.845 E34.92532
G1 X199.301 Y187.557 E35.01853
G1 X198.462 Y188.669 E35.16679
G1 X197.896 Y189.376 E35.26318
G1 X196.966 Y190.479 E35.41674
G1 X196.403 Y191.108 E35.50658
G1 X195.402 Y192.175 E35.6623
G1 X194.77 Y192.808 E35.7575
G1 X194.012 Y193.539 E35.86958
G1 X193.681 Y193.846 E35.91763
G1 X192.752 Y194.673 E36.05001
G1 X191.917 Y195.378 E36.16632
G1 X191.181 Y195.968 E36.26672
G1 X190.117 Y196.779 E36.40911
G1 X189.371 Y197.314 E36.50681
G1 X188.53 Y197.892 E36.61542
G1 X187.65 Y198.464 E36.72713
G1 X186.176 Y199.358 E36.91061
G1 X185.453 Y199.764 E36.99887
G1 X184.489 Y200.282 E37.11534
G1 X184.095 Y200.484 E37.16247
G1 X183.237 Y200.905 E37.26418
G1 X182.039 Y201.459 E37.40466
G1 X181.206 Y201.814 E37.50104
G1 X180.205 Y202.217 E37.61589
G1 X179.79 Y202.375 E37.66315
G1 X178.885 Y202.701 E37.76553
G1 X177.56 Y203.141 E37.91412
G1 X176.462 Y203.467 E38.03603
G1 X175.393 Y203.758 E38.15395
G1 X174.503 Y203.974 E38.25142
G1 X173.459 Y204.205 E38.36522
G1 X172.173 Y204.45 E38.50456
G1 X170.836 Y204.664 E38.64867
G1 X170.149 Y204.756 E38.72244
G1 X168.462 Y204.936 E38.90301
G1 X167.591 Y205.001 E38.99597
G1 X166.145 Y205.073 E39.15006
G1 X165.241 Y205.09 E39.2463
G1 X164.16 Y205.088 E39.36135
G1 X163.143 Y205.061 E39.46963
G1 X161.824 Y204.99 E39.61022
G1 X161.396 Y204.958 E39.6559
G1 X160.441 Y204.87 E39.75797
G1 X159.462 Y204.76 E39.86282
G1 X157.925 Y204.537 E40.02812
G1 X156.747 Y204.33 E40.15542
G1 X155.871 Y204.152 E40.25056
G1 X154.821 Y203.914 E40.36515
G1 X153.568 Y203.592 E40.50284
G1 X152.299 Y203.226 E40.64341
G1 X151.388 Y202.935 E40.7452
G1 X150.067 Y202.476 E40.89404
G1 X149.177 Y202.136 E40.99544
G1 X147.869 Y201.6 E41.14589
G1 X147.087 Y201.251 E41.23703
G1 X146.122 Y200.798 E41.3505
G1 X145.741 Y200.611 E41.39567
G1 X144.954 Y200.207 E41.48982
G1 X143.681 Y199.514 E41.64408
G1 X142.936 Y199.079 E41.7359
G1 X141.69 Y198.309 E41.8918
G1 X140.909 Y197.794 E41.99137
G1 X140.002 Y197.166 E42.10878
G1 X139.044 Y196.462 E42.23532
G1 X138.191 Y195.802 E42.35011
G1 X137.849 Y195.528 E42.39675
G1 X137.139 Y194.936 E42.49514
G1 X136.384 Y194.281 E42.60152
G1 X136.099 Y194.024 E42.64236
G1 X135.173 Y193.159 E42.77723
G1 X134.235 Y192.246 E42.91655
G1 X32.659 Y90.669 E58.20566
G1 X31.364 Y89.327 E58.40415
G1 X30.824 Y88.742 E58.48888
G1 X30.173 Y88.001 E58.59386
G1 X29.338 Y87.001 E58.73252
G1 X29.059 Y86.654 E58.77991
G1 X28.476 Y85.898 E58.88152
G1 X27.869 Y85.077 E58.99019
G1 X27.115 Y83.99 E59.13099
G1 X26.563 Y83.152 E59.23779
G1 X26.353 Y82.819 E59.27969
G1 X25.745 Y81.816 E59.40452
G1 X25.187 Y80.843 E59.5239
G1 X24.755 Y80.041 E59.62086
G1 X24.074 Y78.691 E59.78179
G1 X23.593 Y77.656 E59.90326
G1 X23.157 Y76.656 E60.01937
G1 X22.811 Y75.803 E60.11734
G1 X22.425 Y74.79 E60.23272
G1 X22.279 Y74.383 E60.27874
G1 X21.903 Y73.269 E60.40388
G1 X21.587 Y72.251 E60.51732
G1 X21.327 Y71.327 E60.61949
G1 X21.067 Y70.327 E60.72946
G1 X20.967 Y69.91 E60.7751
G1 X20.708 Y68.733 E60.90337
G1 X20.489 Y67.596 E61.02661
G1 X20.338 Y66.676 E61.12583
G1 X20.198 Y65.705 E61.23025
G1 X20.044 Y64.355 E61.37486
G1 X19.932 Y63.051 E61.51416
G1 X19.884 Y62.194 E61.60552
G1 X19.844 Y61.113 E61.72065
G1 X19.836 Y60.669 E61.76791
G1 X19.839 Y59.469 E61.89563
G1 X19.857 Y58.696 E61.97793
G1 X19.923 Y57.388 E62.11732
G1 X20.003 Y56.329 E62.23035
G1 X20.133 Y55.091 E62.36284
G1 X20.274 Y54.015 E62.47834
G1 X20.42 Y53.08 E62.57906
G1 X20.674 Y51.703 E62.72809
G1 X20.758 Y51.291 E62.77284
G1 X20.952 Y50.422 E62.86761
G1 X21.269 Y49.151 E63.00703
G1 X21.533 Y48.209 E63.11115
G1 X21.831 Y47.223 E63.22078
G1 X22.231 Y46.027 E63.355
G1 X22.735 Y44.657 E63.51037
G1 X23.059 Y43.853 E63.60263
G1 X23.627 Y42.534 E63.75548
G1 X24.018 Y41.698 E63.85371
G1 X24.485 Y40.749 E63.96628
G1 X24.683 Y40.365 E64.01226
G1 X25.265 Y39.289 E64.14246
G1 X25.795 Y38.368 E64.25556
G1 X26.417 Y37.351 E64.38244
G1 X26.888 Y36.617 E64.47526
G1 X27.119 Y36.272 E64.51945
G1 X27.775 Y35.328 E64.6418
G1 X28.399 Y34.473 E64.75446
G1 X28.945 Y33.764 E64.8497
G1 X29.597 Y32.951 E64.96062
G1 X30.436 Y31.966 E65.09833
G1 X31.134 Y31.188 E65.20958
G1 X31.433 Y30.867 E65.25627
G0 F6000 X32.009 Y31.422
G1 F1200 X32.682 Y30.725 E65.35939
G1 X33.659 Y29.763 E65.50532
G1 X34.524 Y28.963 E65.63072
G1 X35.353 Y28.237 E65.74801
G1 X36.243 Y27.5 E65.87099
G1 X37.088 Y26.834 E65.9855
G1 X37.8 Y26.303 E66.08004
G1 X38.7 Y25.661 E66.1977
G1 X39.042 Y25.426 E66.24187
G1 X39.851 Y24.893 E66.34498
G1 X40.867 Y24.257 E66.47255
G1 X41.441 Y23.918 E66.5435
G1 X42.559 Y23.289 E66.68003
G1 X42.914 Y23.098 E66.72294
G1 X43.946 Y22.57 E66.84632
G1 X44.654 Y22.226 E66.9301
G1 X45.87 Y21.677 E67.0721
G1 X47.059 Y21.181 E67.20921
G1 X48.235 Y20.734 E67.34312
G1 X49.218 Y20.389 E67.454
G1 X49.771 Y20.209 E67.51589
G1 X51.094 Y19.809 E67.663
G1 X51.505 Y19.694 E67.70842
G1 X52.412 Y19.459 E67.80814
G1 X53.306 Y19.245 E67.90598
G1 X54.594 Y18.976 E68.04602
G1 X55.567 Y18.798 E68.1513
G1 X55.922 Y18.74 E68.18959
G1 X57.155 Y18.562 E68.32218
G1 X58.217 Y18.437 E68.43599
G1 X59.387 Y18.333 E68.56101
G1 X60.46 Y18.264 E68.67544
G1 X61.344 Y18.23 E68.7696
G1 X63.065 Y18.202 E68.95279
G1 X154.301 Y18.203 E78.66326
G1 X155.986 Y18.229 E78.84262
G1 X157.188 Y18.272 E78.97064
G1 X158.606 Y18.364 E79.12188
G1 X159.594 Y18.446 E79.22739
G1 X161.072 Y18.611 E79.38568
G1 X162.264 Y18.771 E79.51368
G1 X163.391 Y18.953 E79.63519
G1 X164.371 Y19.127 E79.74112
G1 X165.615 Y19.382 E79.87628
G1 X166.718 Y19.63 E79.9966
G1 X168.108 Y19.985 E80.14929
G1 X169.046 Y20.243 E80.25283
G1 X170.359 Y20.644 E80.39895
G1 X171.695 Y21.083 E80.54862
G1 X172.676 Y21.437 E80.65962
G1 X173.614 Y21.791 E80.76633
G1 X174.747 Y22.253 E80.89656
G1 X176.142 Y22.858 E81.05839
G1 X176.956 Y23.238 E81.15401
G1 X178.182 Y23.837 E81.29923
G1 X178.566 Y24.034 E81.34517
G1 X180.055 Y24.836 E81.52517
G1 X180.404 Y25.032 E81.56777
G1 X181.222 Y25.511 E81.66866
G1 X182.431 Y26.248 E81.81936
G1 X183.423 Y26.893 E81.9453
G1 X184.219 Y27.428 E82.04738
G1 X185.219 Y28.139 E82.17797
G1 X186.425 Y29.038 E82.33807
G1 X187.3 Y29.731 E82.45687
G1 X188.008 Y30.308 E82.55407
G1 X188.961 Y31.128 E82.68788
G1 X190.134 Y32.183 E82.8558
G1 X190.925 Y32.94 E82.97233
G1 X191.71 Y33.715 E83.08973
G1 X192.483 Y34.518 E83.20836
G1 X193.383 Y35.492 E83.34951
G1 X194.197 Y36.423 E83.48113
G1 X195.007 Y37.389 E83.6153
G1 X195.717 Y38.285 E83.73698
G1 X196.498 Y39.308 E83.87396
G1 X197.149 Y40.212 E83.99253
G1 X197.884 Y41.275 E84.13008
G1 X198.478 Y42.184 E84.24565
G1 X199.173 Y43.294 E84.38504
G1 X199.729 Y44.239 E84.50173
G1 X200.213 Y45.089 E84.60584
G1 X200.876 Y46.331 E84.75568
G1 X201.479 Y47.528 E84.89833
G1 X201.951 Y48.533 E85.01651
G1 X202.487 Y49.733 E85.15639
G1 X202.9 Y50.729 E85.27115
G1 X203.386 Y51.964 E85.4124
G1 X203.701 Y52.833 E85.51078
G1 X204.059 Y53.865 E85.62704
G1 X204.494 Y55.247 E85.78124
G1 X204.777 Y56.208 E85.88787
G1 X205.144 Y57.596 E86.04067
G1 X205.377 Y58.551 E86.1453
G1 X205.647 Y59.803 E86.28162
G1 X205.921 Y61.215 E86.4347
G1 X206.1 Y62.309 E86.55269
G1 X206.285 Y63.586 E86.69002
G1 X206.392 Y64.497 E86.78765
G1 X206.512 Y65.669 E86.91304
G1 X206.611 Y67.011 E87.05626
G1 X206.684 Y68.401 E87.2044
G1 X206.71 Y69.474 E87.31864
G1 X206.726 Y70.849 E87.46499
G1 X206.725 Y161.861 E97.15162
G1 X206.698 Y163.532 E97.32949
G1 X206.642 Y164.857 E97.47064
G1 X206.578 Y165.749 E97.56582
G1 X206.478 Y166.821 E97.68041
G1 X206.434 Y167.212 E97.72229
G1 X206.274 Y168.433 E97.85336
G1 X206.112 Y169.454 E97.96338
G1 X205.94 Y170.386 E98.06425
G1 X205.733 Y171.39 E98.17336
G1 X205.436 Y172.64 E98.3101
G1 X205.172 Y173.64 E98.42018
G1 X204.74 Y175.085 E98.5807
G1 X204.394 Y176.127 E98.69756
G1 X204.074 Y177.012 E98.79772
G1 X203.587 Y178.26 E98.9403
G1 X203.255 Y179.044 E99.03092
G1 X202.677 Y180.325 E99.1805
G1 X202.382 Y180.933 E99.25242
G1 X201.806 Y182.056 E99.38675
G1 X201.63 Y182.383 E99.42628
G1 X201.022 Y183.464 E99.55828
G1 X200.437 Y184.439 E99.6793
G1 X199.956 Y185.195 E99.77466
G1 X199.363 Y186.086 E99.88858
G1 X198.498 Y187.299 E100.04715
G1 X197.837 Y188.169 E100.16344
G1 X197.092 Y189.094 E100.28985
G1 X196.367 Y189.948 E100.40908
G1 X195.817 Y190.563 E100.49689
G1 X194.834 Y191.612 E100.6499
G1 X194.396 Y192.054 E100.71613
G1 X193.457 Y192.963 E100.85522
G1 X193.148 Y193.25 E100.90011
G1 X192.429 Y193.893 E101.00277
G1 X191.681 Y194.535 E101.10768
G1 X190.473 Y195.506 E101.27264
G1 X189.649 Y196.13 E101.38265
G1 X188.918 Y196.654 E101.47838
G1 X187.789 Y197.424 E101.62382
G1 X187.218 Y197.791 E101.69607
G1 X186.086 Y198.483 E101.83728
G1 X185.074 Y199.059 E101.96121
G1 X184.11 Y199.577 E102.07769
G1 X183.743 Y199.766 E102.12162
G1 X182.885 Y200.187 E102.22334
G1 X181.722 Y200.724 E102.35968
G1 X180.907 Y201.072 E102.454
G1 X179.906 Y201.475 E102.56885
G1 X179.519 Y201.622 E102.61291
G1 X178.373 Y202.032 E102.74245
G1 X177.33 Y202.375 E102.85931
G1 X176.249 Y202.696 E102.97933
G1 X175.201 Y202.981 E103.09492
G1 X174.331 Y203.193 E103.19023
G1 X173.287 Y203.424 E103.30403
G1 X172.904 Y203.501 E103.34561
G1 X171.765 Y203.709 E103.46884
G1 X171.017 Y203.829 E103.54947
G1 X170.043 Y203.963 E103.65411
G1 X168.399 Y204.139 E103.83009
G1 X167.548 Y204.202 E103.92091
G1 X166.126 Y204.273 E104.07244
G1 X165.242 Y204.29 E104.16655
G1 X163.822 Y204.282 E104.31768
G1 X162.901 Y204.249 E104.41577
G1 X161.469 Y204.162 E104.56846
G1 X160.253 Y204.047 E104.69846
G1 X159.554 Y203.966 E104.77336
G1 X158.316 Y203.789 E104.90646
G1 X157.251 Y203.61 E105.0214
G1 X156.031 Y203.368 E105.15378
G1 X154.68 Y203.056 E105.30135
G1 X153.77 Y202.818 E105.40146
G1 X152.825 Y202.55 E105.50601
G1 X151.907 Y202.264 E105.60835
G1 X150.677 Y201.845 E105.74665
G1 X149.723 Y201.491 E105.85495
G1 X148.512 Y201.003 E105.99391
G1 X147.66 Y200.633 E106.09277
G1 X146.462 Y200.073 E106.23352
G1 X146.106 Y199.899 E106.27569
G1 X145.319 Y199.495 E106.36985
G1 X144.081 Y198.821 E106.51987
G1 X143.354 Y198.397 E106.60945
G1 X142.13 Y197.641 E106.76257
G1 X141.107 Y196.962 E106.89325
G1 X140.459 Y196.51 E106.97734
G1 X139.752 Y195.994 E107.07049
G1 X138.68 Y195.169 E107.21447
G1 X138.362 Y194.913 E107.25792
G1 X137.464 Y194.161 E107.38258
G1 X136.643 Y193.438 E107.49901
G1 X135.731 Y192.586 E107.63185
G1 X134.685 Y191.567 E107.78727
G1 X33.36 Y90.242 E123.03852
G1 X31.952 Y88.785 E123.25417
G1 X31.412 Y88.2 E123.33891
G1 X30.622 Y87.294 E123.46685
G1 X29.953 Y86.49 E123.57817
G1 X29.693 Y86.166 E123.62238
G1 X28.954 Y85.203 E123.75158
G1 X28.513 Y84.603 E123.83083
G1 X27.638 Y83.334 E123.99489
G1 X27.036 Y82.403 E124.11289
G1 X26.437 Y81.415 E124.23586
G1 X25.892 Y80.463 E124.35261
G1 X25.327 Y79.407 E124.48008
G1 X24.799 Y78.352 E124.60564
G1 X24.43 Y77.563 E124.69835
G1 X23.898 Y76.353 E124.83903
G1 X23.559 Y75.518 E124.93495
G1 X23.173 Y74.505 E125.05032
G1 X23.036 Y74.125 E125.09332
G1 X22.666 Y73.029 E125.21643
G1 X22.356 Y72.032 E125.32756
G1 X22.101 Y71.125 E125.42783
G1 X21.841 Y70.125 E125.53781
G1 X21.748 Y69.737 E125.58027
G1 X21.493 Y68.578 E125.70658
G1 X21.345 Y67.832 E125.78752
G1 X21.128 Y66.546 E125.92633
G1 X20.944 Y65.23 E126.06776
G1 X20.839 Y64.268 E126.17075
G1 X20.731 Y63.004 E126.30577
G1 X20.684 Y62.164 E126.39532
G1 X20.644 Y61.083 E126.51045
G1 X20.636 Y60.669 E126.55452
G1 X20.639 Y59.487 E126.68032
G1 X20.671 Y58.362 E126.80011
G1 X20.739 Y57.168 E126.9274
G1 X20.833 Y56.041 E127.04776
